X: 30260
T: Old Lancashire Hornpipe, The
R: three-two
M: 3/2
K: Dmajor
M:6/4
|:B2 A2 G2 F2- FE D2|f2 e2 d2 e2 E4|B2 A2 G2 F2- FE D2|f2 e2 dc d2 D4:|
|:[M:3/4] B2 A2 G2|[M:3/2] F2A2 G2B2 A2cd|[M:3/4] e2 E4|[M:3/4] B2 A2 G2|[M:3/2] F2A2 G2B2 A2Bc|[M:3/4] d2 D4:|
M:6/4
|:f2 g2 a2 f2- fe d2|f2 e2 d2 c2 e4|f2 g2 a2 f2- fe d2|f2 e2 dc d2 D4:|

